_includes/icons/color-support.svg

<svg fill="#666" height="50" viewBox="0 0 48 48" width="50" xmlns="http://www.w3.org/2000/svg"><path d="m44.699219 11-8.699219 8.601563s-2.601562 0-5.199219-2.601563c-2.601562-2.601562-2.601562-5.199219-2.601562-5.199219l8.699219-8.699218c-4.898438-1.203125-10.796875.398437-14.398438 4-5.398437 5.398437-.601562 12.296875-2 13.699218-7.601562 7.898438-15.398437 13.898438-15.601562 14.199219-2.296875 2.300781-2.398438 6-.199219 8.199219s5.902344 2.101562 8.199219-.199219c.300781-.300781 6.703125-8.398437 14.203125-15.898437 1.398437-1.402344 8 3.699218 13.597656-1.800782 3.5-3.601562 5.199219-9.402343 4-14.300781zm-35.300781 30.101563c-1.398438 0-2.5-1.101563-2.5-2.5 0-1.5 1.101562-2.601563 2.5-2.601563 1.402343 0 2.5 1.101563 2.5 2.5 0 1.398438-1.097657 2.601563-2.5 2.601563z" fill="#607d8b"/></svg>

<svg xmlns="http://www.w3.org/2000/svg" viewBox="0 0 48 48" width="50" height="50" fill="#666"><path d="M 44.699219 11 L 36 19.601563 C 36 19.601563 33.398438 19.601563 30.800781 17 C 28.199219 14.398438 28.199219 11.800781 28.199219 11.800781 L 36.898438 3.101563 C 32 1.898438 26.101563 3.5 22.5 7.101563 C 17.101563 12.5 21.898438 19.398438 20.5 20.800781 C 12.898438 28.699219 5.101563 34.699219 4.898438 35 C 2.601563 37.300781 2.5 41 4.699219 43.199219 C 6.898438 45.398438 10.601563 45.300781 12.898438 43 C 13.199219 42.699219 19.601563 34.601563 27.101563 27.101563 C 28.5 25.699219 35.101563 30.800781 40.699219 25.300781 C 44.199219 21.699219 45.898438 15.898438 44.699219 11 Z M 9.398438 41.101563 C 8 41.101563 6.898438 40 6.898438 38.601563 C 6.898438 37.101563 8 36 9.398438 36 C 10.800781 36 11.898438 37.101563 11.898438 38.5 C 11.898438 39.898438 10.800781 41.101563 9.398438 41.101563 Z" fill="#607d8b"/></svg>
